svg/u1f58c.svg

<svg viewBox="0 0 128 128" xmlns="http://www.w3.org/2000/svg">
  <path d="M119.88,54.21c-0.12,0.06-0.25,0.12-0.37,0.19" fill="none"/>
  <g>
    <path d="M39.85,84.34c-7.99,5.29-19.23,0.44-27.01,12.41c-1.26,1.94-2.39,5.34-3.84,10.3 c-1.14,3.88-7.26,6.61-7.26,6.61s5.27,5.58,10.24,6.65c7.19,1.56,17.52,2.34,24.52-5.29c7.98-8.7,4.41-16.73,11.44-21.56 C47.93,93.46,47.84,79.04,39.85,84.34z" fill="#F09300"/>
    <path d="M33.92,86.82c-0.8,0.7-1.01,1.86-0.98,2.92c0.13,4.03,3.35,7.75,7.32,8.44 c1.61,0.28,3.49,0.01,4.48-1.29c1.11-1.45,0.69-3.55-0.09-5.2c-0.86-1.81-2.09-3.44-3.61-4.74" fill="#C67100"/>
    <path d="M122.3,6.51c0,0-1.98-2.66-7.05,0.31c-6.89,4.03-29.19,20.63-55.94,48.19 c-6.02,6.2-8.39,9.77-8.39,9.77s-1.49,2.28,4.22,7.99c5.7,5.7,10.99,6.86,10.99,6.86l4.52-4.65c32.26-33.22,48.5-54.52,51.57-61.4 C124.6,8.21,122.3,6.51,122.3,6.51z" fill="#1565C0"/>
    <path d="M58.08,72.66c-5.71-5.55-6.58-8.47-6.58-8.47s-1.71,1.11-2.74,2.43c-1.56,2-1.73,3.44-1.73,3.44 L34.23,86.09c0,0-1.63,3.04,3.25,7.77c4.87,4.73,7.87,3.02,7.87,3.02L61,83.63c0,0,1.43-0.21,3.39-1.83 c1.29-1.07,2.35-2.81,2.35-2.81S63.79,78.2,58.08,72.66z" fill="#BDBDBD"/>
    <path d="M55.13,72.76c-0.02,0.02-0.03,0.04-0.05,0.06c-0.35,0.4-0.96,0.41-1.49,0.31 c-1.92-0.37-3.25-1.65-3.94-3.41c-0.32-0.83-0.38-1.79,0.01-2.59c0.71-1.44,1.75-0.47,2.55,0.33c1.01,1.02,1.91,2.16,2.65,3.38 c0.18,0.3,0.36,0.62,0.43,0.97C55.36,72.14,55.33,72.5,55.13,72.76z" fill="#EEEEEE"/>
    <path d="M61.59,59.56c1.8,4.01,17-11.78,20.85-15.88c1.92-2.04,15.19-13.98,12.19-14.48 s-9.83,5.38-12.09,7.18c-4.52,3.59-10.31,9.26-14.78,13.92C65.57,52.57,60.91,58.05,61.59,59.56z" fill="#2196F3"/>
    <path d="M43.73,76.94c0.41-0.43,0.9-0.9,1.54-0.9c0.6,0,1.1,0.42,1.51,0.82c1.35,1.32,2.6,3.15,1.87,4.8 c-0.3,0.67-0.88,1.19-1.45,1.69c-2.23,1.97-4.45,3.93-6.68,5.9c-1.34,1.18-2.61-0.36-3.11-1.54c-0.45-1.08-0.11-1.94,0.47-2.89 C39.55,82.03,41.47,79.35,43.73,76.94z" fill="#EEEEEE"/>
    <path d="M59.48,82.62c0.23,0.16,0.48,0.38,0.45,0.65c-0.01,0.1-0.07,0.2-0.13,0.28 c-0.53,0.73-1.6,0.88-2.46,0.59c-0.85-0.29-1.54-0.92-2.2-1.53c-2.51-2.36-4.99-4.81-6.79-7.75c-0.28-0.45-1.73-3.06-0.73-3.31 c0.64-0.16,2.08,2.16,2.49,2.64c1.78,2.04,3.72,3.94,5.79,5.69C57.06,80.84,58.25,81.76,59.48,82.62z" fill="#9E9E9E"/>
    <path d="M36.49,115.02c0,0-9.59,5.38-19.79,3.86c0,0,8.07-1.47,11.49-12.4c0,0-7.77,8.09-14.79,8.64 c0,0,6.7-3.49,7.13-14.07c-3.58,6.38-5.93,9.57-11.63,11.5c6.13-6.59,3.9-15.75,3.9-15.75c-1.25,1.95-2.37,5.32-3.81,10.24 c-1.14,3.88-7.26,6.61-7.26,6.61s5.27,5.58,10.24,6.65C19.16,121.87,29.5,122.64,36.49,115.02z" fill="#C67100"/>
  </g>
</svg>

<svg viewBox="0 0 128 128" xmlns="http://www.w3.org/2000/svg">
  <defs/>
  <path d="M39.85,84.34 C31.86,89.63 20.62,84.78 12.84,96.75 C11.58,98.69 10.45,102.09 9,107.05 C7.86,110.93 1.74,113.66 1.74,113.66 C1.74,113.66 7.01,119.24 11.98,120.31 C19.17,121.87 29.5,122.65 36.5,115.02 C44.48,106.32 40.91,98.29 47.94,93.46 C47.93,93.46 47.84,79.04 39.85,84.34 Z" fill="#F09300"/>
  <path d="M33.92,86.82 C33.12,87.52 32.91,88.68 32.94,89.74 C33.07,93.77 36.29,97.49 40.26,98.18 C41.87,98.46 43.75,98.19 44.74,96.89 C45.85,95.44 45.43,93.34 44.65,91.69 C43.79,89.88 42.56,88.25 41.04,86.95" fill="#C67100"/>
  <path d="M122.3,6.51 C122.3,6.51 120.32,3.85 115.25,6.82 C108.36,10.85 86.06,27.45 59.31,55.01 C53.29,61.21 50.92,64.78 50.92,64.78 C50.92,64.78 49.43,67.06 55.14,72.77 C60.84,78.47 66.13,79.63 66.13,79.63 L70.65,74.98 C102.91,41.76 119.15,20.46 122.22,13.58 C124.6,8.21 122.3,6.51 122.3,6.51 Z" fill="#1565C0"/>
  <path d="M58.08,72.66 C52.37,67.11 51.5,64.19 51.5,64.19 C51.5,64.19 49.79,65.3 48.76,66.62 C47.2,68.62 47.03,70.06 47.03,70.06 L34.23,86.09 C34.23,86.09 32.6,89.13 37.48,93.86 C42.35,98.59 45.35,96.88 45.35,96.88 L61,83.63 C61,83.63 62.43,83.42 64.39,81.8 C65.68,80.73 66.74,78.99 66.74,78.99 C66.74,78.99 63.79,78.2 58.08,72.66 Z" fill="#BDBDBD"/>
  <path d="M55.13,72.76 C55.11,72.78 55.1,72.8 55.08,72.82 C54.73,73.22 54.12,73.23 53.59,73.13 C51.67,72.76 50.34,71.48 49.65,69.72 C49.33,68.89 49.27,67.93 49.66,67.13 C50.37,65.69 51.41,66.66 52.21,67.46 C53.22,68.48 54.12,69.62 54.86,70.84 C55.04,71.14 55.22,71.46 55.29,71.81 C55.36,72.14 55.33,72.5 55.13,72.76 Z" fill="#EEEEEE"/>
  <path d="M61.59,59.56 C63.39,63.57 78.59,47.78 82.44,43.68 C84.36,41.64 97.63,29.7 94.63,29.2 C91.63,28.7 84.8,34.58 82.54,36.38 C78.02,39.97 72.23,45.64 67.76,50.3 C65.57,52.57 60.91,58.05 61.59,59.56 Z" fill="#2196F3"/>
  <path d="M43.73,76.94 C44.14,76.51 44.63,76.04 45.27,76.04 C45.87,76.04 46.37,76.46 46.78,76.86 C48.13,78.18 49.38,80.01 48.65,81.66 C48.35,82.33 47.77,82.85 47.2,83.35 C44.97,85.32 42.75,87.28 40.52,89.25 C39.18,90.43 37.91,88.89 37.41,87.71 C36.96,86.63 37.3,85.77 37.88,84.82 C39.55,82.03 41.47,79.35 43.73,76.94 Z" fill="#EEEEEE"/>
  <path d="M59.48,82.62 C59.71,82.78 59.96,83 59.93,83.27 C59.92,83.37 59.86,83.47 59.8,83.55 C59.27,84.28 58.2,84.43 57.34,84.14 C56.49,83.85 55.8,83.22 55.14,82.61 C52.63,80.25 50.15,77.8 48.35,74.86 C48.07,74.41 46.62,71.8 47.62,71.55 C48.26,71.39 49.7,73.71 50.11,74.19 C51.89,76.23 53.83,78.13 55.9,79.88 C57.06,80.84 58.25,81.76 59.48,82.62 Z" fill="#9E9E9E"/>
  <path d="M36.49,115.02 C36.49,115.02 26.9,120.4 16.7,118.88 C16.7,118.88 24.77,117.41 28.19,106.48 C28.19,106.48 20.42,114.57 13.4,115.12 C13.4,115.12 20.1,111.63 20.53,101.05 C16.95,107.43 14.6,110.62 8.9,112.55 C15.03,105.96 12.8,96.8 12.8,96.8 C11.55,98.75 10.43,102.12 8.99,107.04 C7.85,110.92 1.73,113.65 1.73,113.65 C1.73,113.65 7,119.23 11.97,120.3 C19.16,121.87 29.5,122.64 36.49,115.02 Z" fill="#C67100"/>
</svg>
